X:1
T:Title
%%score { ( 1 4 ) | ( 2 3 ) }
L:1/8
M:4/4
K:Db
V:1 treble nm="Grand Piano"
V:4 treble 
V:2 treble 
V:3 treble 
V:1
 z4 z2[Q:1/4=110] AG | [DF]2 [DF]2 F2 [EG]2 | [FA]6 [Fd]c | [GB]2 [GB]2 [GB]2 [GB]2 | [GB]6 [EG]F | %5
 [CE]2 [CE]2 E2 [DF]2 | [EG]6 [GB]c | [GB]2 [FA]2 [FA]2 [DF]2 | [FA]6 [FA]G | %9
 [DF]2 [DF]2 [FA]2 [Fd]2 | [Af]6 [Ge]d | [Ac]2 [GB]2 [GB]2 [GB]2 | [Bd]6 [Ac]B | %13
 [FA]2 F2 [CF]2 A2 | [B,G]2 GG B2 G2 | [A,DF]4 [A,G]4 | [A,DF]6 z2 | [A,FA]4 [A,EG]2 [A,DF]2 | %18
 [G,B,E]2 [B,B]6 | [CB]4 [DA]2 [EG]2 | [EG]2 [DF]4 z2 | [Fd]4 [Af]2 [Ad]2 | %22
 d2 B4 B2[Q:1/4=108][Q:1/4=107] | %23
 A2 A2 A2 [EGA]2[Q:1/4=105][Q:1/4=104][Q:1/4=102][Q:1/4=100][Q:1/4=99][Q:1/4=97][Q:1/4=95][Q:1/4=94] | %24
[M:3/4] [FA]6[Q:1/4=92][Q:1/4=91][Q:1/4=89][Q:1/4=87][Q:1/4=86][Q:1/4=84] |] %25
V:2
 z4 z2 FE | D,,2 A,2 D2 A,2 | D,,2 A,2[K:treble] D2 z A | G,,2 B,2 E2 B,2 | z4 z2 B,2 | %5
 A,,2 A,2 C2 A,2 | A,,2 A,2[K:treble] C2 z A | D,2 A,2 D2 A,2 | D,2 A,2 D2 z E | D,2 A,2 D2 A,2 | %10
 D,2 A,2[K:treble] D2 z F | G,,2 B,2 D2 B,2 | z4[K:treble] z2 B,2 | z2 D2 z2 _C2 | %14
 [G,,D,]2[K:treble] EE G2[K:bass] E2 | A,,4 z2 E2 | D,6 z2 | D,4 C,2 D,2 | G,,2 [G,,E,]6 | %19
 [A,,G,]4 [B,,F,]2 [C,A,]2 | [D,A,]2 [D,A,]4 z2 | [D,A,]4 [D,D]2 [F,_C]2 | %22
 [G,B,G]2 [G,DG]4[K:treble] [G,DG]2 | [A,DF]2 [A,CE]2 [A,DF]2[K:bass] [A,,A,]2 |[M:3/4] [D,D]6 |] %25
V:3
 x8 | x8 | z4[K:treble] z2 A,2 | x8 | G,,2 B,2 E2 z D | x8 | z4[K:treble] z2 A,2 | x8 | z4 z2 A,2 | %9
 x8 | z4[K:treble] z2 A,2 | x8 | G,,2 B,2[K:treble] D2 z G | D,4 D,4 | x2[K:treble] x4[K:bass] x2 | %15
 z4 A,,4 | x8 | x8 | x8 | x8 | x8 | x8 | x6[K:treble] x2 | x6[K:bass] x2 |[M:3/4] x6 |] %25
V:4
 x8 | x8 | x8 | x8 | x8 | x8 | x8 | x8 | x8 | x8 | x8 | x8 | x8 | x8 | x8 | z4 C2 z2 | x8 | x8 | %18
 x8 | x8 | x8 | x8 | x8 | x8 |[M:3/4] x6 |] %25

